X:183
T:Sur de la pte fine
R:branle
C:trad.
O:France
Z:S. Piron
M:2/2
L:1/8
Q:1/4=180
K:Bb
d2g2_g2=g2|a2b2z2b2|c'ba2g2a2|_g2=g2 z4|d2g2_g2=g2|a2b2z2b2|
c'ba2g2a2|_g2=g2 z4|bc'd'2d'2d'2| \
z2e'd'c'ba2|abc'2c'2c'2|z2d'c'bag2|b2a2g2a2|_g2=g2 z4||
